public/images/contacts/instagram-logo-contacts.svg

<svg width="22" height="22" viewBox="0 0 22 22" fill="none" xmlns="http://www.w3.org/2000/svg">
<path d="M15.9286 0H6.07104C2.72347 0 0 2.7236 0 6.07117V15.9287C0 19.2764 2.72347 21.9999 6.07104 21.9999H15.9286C19.2764 21.9999 21.9999 19.2763 21.9999 15.9287V6.07117C22 2.7236 19.2764 0 15.9286 0ZM20.0481 15.9287C20.0481 18.2001 18.2001 20.0479 15.9287 20.0479H6.07104C3.79977 20.0481 1.95194 18.2001 1.95194 15.9287V6.07117C1.95194 3.7999 3.79977 1.95194 6.07104 1.95194H15.9286C18.2 1.95194 20.0479 3.7999 20.0479 6.07117V15.9287H20.0481Z" fill="#43484C"/>
<path d="M10.9999 5.33142C7.8741 5.33142 5.33112 7.8744 5.33112 11.0002C5.33112 14.1259 7.8741 16.6688 10.9999 16.6688C14.1258 16.6688 16.6687 14.1259 16.6687 11.0002C16.6687 7.8744 14.1258 5.33142 10.9999 5.33142ZM10.9999 14.7167C8.95052 14.7167 7.28305 13.0495 7.28305 11.0001C7.28305 8.95057 8.95039 7.28323 10.9999 7.28323C13.0495 7.28323 14.7168 8.95057 14.7168 11.0001C14.7168 13.0495 13.0493 14.7167 10.9999 14.7167Z" fill="#43484C"/>
<path d="M16.9065 3.67627C16.5304 3.67627 16.1609 3.82852 15.8954 4.09529C15.6285 4.36075 15.475 4.73031 15.475 5.10769C15.475 5.48389 15.6286 5.85333 15.8954 6.12009C16.1608 6.38556 16.5304 6.53911 16.9065 6.53911C17.2838 6.53911 17.6521 6.38556 17.9189 6.12009C18.1856 5.85333 18.3379 5.48376 18.3379 5.10769C18.3379 4.73031 18.1856 4.36075 17.9189 4.09529C17.6534 3.82852 17.2838 3.67627 16.9065 3.67627Z" fill="#43484C"/>
</svg>

<svg xmlns="http://www.w3.org/2000/svg" width="22" height="22" fill="#43484c" xmlns:v="https://vecta.io/nano"><path d="M15.929 0H6.071A6.08 6.08 0 0 0 0 6.071v9.858A6.08 6.08 0 0 0 6.071 22h9.858A6.08 6.08 0 0 0 22 15.929V6.071A6.08 6.08 0 0 0 15.929 0zm4.12 15.929c0 2.271-1.848 4.119-4.119 4.119H6.071c-2.271 0-4.119-1.848-4.119-4.119V6.071c0-2.271 1.848-4.119 4.119-4.119h9.858c2.271 0 4.119 1.848 4.119 4.119v9.858h0zM11 5.331c-3.126 0-5.669 2.543-5.669 5.669S7.874 16.669 11 16.669s5.669-2.543 5.669-5.669S14.126 5.331 11 5.331zm0 9.385A3.72 3.72 0 0 1 7.283 11 3.72 3.72 0 0 1 11 7.283 3.72 3.72 0 0 1 14.717 11 3.72 3.72 0 0 1 11 14.717zm5.907-11.04c-.376 0-.746.152-1.011.419a1.44 1.44 0 0 0-.42 1.012c0 .376.154.746.42 1.012a1.44 1.44 0 0 0 1.011.419c.377 0 .746-.154 1.012-.419a1.44 1.44 0 0 0 .419-1.012 1.44 1.44 0 0 0-1.431-1.431z"/></svg>
